!!!COM: Haydn, Franz Joseph
!!!CDT: 1732/03/31-1809/05/31
!!!CNT: Austrian
!!!OTL: Sonata No. 61 in D major
!!!SCT: Hob. XVI:51
!!!OMV: Mvmt. 1
!!!OMD: Andante.
!!!ODT: 1794-1795
**kern	**kern	**dynam
*staff2	*staff1	*staff1/2
*Ipiano	*Ipiano	*Ipiano
*clefF4	*clefG2	*
*k[f#c#]	*k[f#c#]	*
*D:	*D:	*
*met(c)	*met(c)	*
*M4/4	*M4/4	*
*MM120	*MM120	*
=1-	=1-	=1-
.	(16qF#LL	.
.	16qAJJ	.
4r	2d)	f
4DD 4D	.	.
.	(16qALL	.
.	16qc#JJ	.
4r	2e)	.
4AAA 4AA	.	.
=2	=2	=2
.	(16qALL	.
.	16qdJJ	.
4r	2f#)	.
(12DL	.	.
12AA	.	.
12FF#J	.	.
4DD)	4r	.
4r	(8.ddL	p
.	16aJk	.
=3	=3	=3
*^	*	*
4r	4ryy	(2f#)	.
2.d	(4d	.	.
.	.	(8qa	.
.	4B)	8.gL)	.
.	.	16f#k	.
.	4G	8.g	.
.	.	16bJk	.
=4	=4	=4	=4
(4c#	2.A	8.eL	.
.	.	16gk	.
4d	.	8.f#	.
.	.	16aJk	.
4e)	.	4g)	.
4r	4ryy	4r	.
*v	*v	*	*
!!LO:LB:g=z
=5	=5	=5
.	(16qF#LL	.
.	16qAJJ	.
8r	2d)	f
(16C#LL	.	.
16DJJ	.	.
4DD)	.	.
.	(16qALL	.
.	16qc#JJ	.
8r	2e)	.
(16GG#LL	.	.
16AAJJ	.	.
4AAA)	.	.
=6	=6	=6
.	(16qALL	.
.	16qdJJ	.
8.r	2f#)	.
(16C#	.	.
8DL	.	.
16AAL	.	.
16FF#JJ	.	.
4DD)	4r	.
4r	(8.ff#L	p
.	16ddJk	.
=7	=7	=7
*^	*	*
4r	4ryy	(2a)	.
*v	*v	*	*
*clefG2	*	*
*^	*	*
(4f#	2.d	.	.
4g)	.	8.bL	.
.	.	16ak	.
4g	.	8.b	.
.	.	16ddJk	.
=8	=8	=8	=8
2f#	2d	8.aL	.
.	.	16ddk	.
.	.	8.ff#	.
.	.	16ddJk	.
2r	2ryy	4aa`)	.
.	.	4r	.
*v	*v	*	*
*clefF4	*	*
!!LO:LB:g=z
=9	=9	=9
2G 2B 2d	(8.bL	<
.	16ddk	.
.	8.gg	.
.	16ddJk	.
2r	4bb`)	.
.	8.r	.
.	(16bb	[[
=10	=10	=10
2.AA 2.D 2.F#	12aaL	f
!	!LO:TUP:a	!
.	12ff#	.
.	12ddJ	.
!	!LO:TUP:b	!
.	12aL	.
.	12f#	.
.	12dJ	.
!	!LO:TUP:b	!
.	12AL	.
.	12A#	.
.	12BJ	.
!	!LO:TUP:b	!
4AA 4E 4G	12B#L	.
.	12c#	.
.	12eJ	.
=11	=11	=11
.	(8qd	.
!	!LO:TX:b:i:t=cantabile	!LO:DY:rj
!LO:TUP:a	!	!
12DL	(2dd))	mf
12F#	.	.
12AJ	.	.
!LO:TUP::a	!	!
12DL	.	.
12F#	.	.
12AJ	.	.
*Xtuplet	*	*
12EL	4c# 4cc#	.
12G	.	.
12AJ	.	.
12DL	4d 4dd	.
12F#	.	.
12AJ	.	.
!!LO:LB:g=z
=12	=12	=12
12C#L	4..e 4..ee	.
12E	.	.
12AJ	.	.
12BBL	.	.
12D	.	.
12AJ	.	.
.	16f# 16ff#	.
12AAL	2g 2gg)	.
12C#	.	.
12AJ	.	.
12C#L	.	.
12E	.	.
12AJ	.	.
=13	=13	=13
12DL	4f#' (4ff#'	.
12F#	.	.
12AJ	.	.
12DL	4f#' 4ff#'	.
12F#	.	.
12AJ	.	.
12GGL	4b' 4bb'	.
12BB	.	.
12GJ	.	.
12GGL	4b' 4bb')	.
12BB	.	.
12GJ	.	.
=14	=14	=14
*	*^	*
(12AAL<	(2dd	2f#	<
12D	.	.	.
12F#J	.	.	.
12AL	.	.	.
12B	.	.	.
12G#J	.	.	.
*	*Xtuplet	*	*
4A)	(12cc#L)	4e	[ >
.	12b	.	.
.	12aJ	.	.
4r	12gL	4r	.
.	12f#	.	.
.	12eJ)	.	]]
*	*v	*v	*
!!LO:LB:g=z
=15	=15	=15
12DL	2d (2dd	.
12F#	.	.
12AJ	.	.
12DL	.	.
12F#	.	.
12AJ	.	.
12EL	4c# 4cc#	.
12G	.	.
12AJ	.	.
12DL	4d 4dd	.
12F#	.	.
12AJ	.	.
=16	=16	=16
12C#L	4..e 4..ee	.
12E	.	.
12AJ	.	.
12BBL	.	.
12D	.	.
12AJ	.	.
.	16f# 16ff#	.
12AAL	2g 2gg)	.
12C#	.	.
12AJ	.	.
12C#L	.	.
12E	.	.
12AJ	.	.
=17	=17	=17
12DL	2f# (2ff#	.
12F#	.	.
12AJ	.	.
12DL	.	.
12F#	.	.
12AJ	.	.
12C#L	4e 4ee	<
12G	.	.
12AJ	.	.
12CnL	4f# 4ff#	.
12D	.	.
12AJ	.	.
!!LO:LB:g=z
=18	=18	=18
12BBL	4..g 4..gg	.
12D	.	.
12GJ	.	.
12AAL<	.	.
12Cn	.	.
12F#J	.	.
.	16a 16aa	.
12GGL<	4..b 4..bb)	.
12BB	.	.
12GJ	.	.
12GGL<	.	.
12BB	.	.
12GJ	.	.
.	16b (16bb	.
=19	=19	=19
2.AA 2.D 2.F#	12aaL	f
.	12ff#	.
.	12dddJ	.
.	12aaL	.
.	12ff#	.
.	12ddJ	.
.	12aL	.
.	12f#	.
.	12aJ	.
4AA 4C#X 4G	12gL	.
.	12e	.
.	12c#J)	.
=20	=20	=20
12DL	2d 2dd	mf
12F#	.	.
12AJ	.	.
12DL	.	.
12F#	.	.
12AJ	.	.
12DL	2f# 2ff#	.
12F#	.	.
12AJ	.	.
12DL	.	.
12F#	.	.
12AJ	.	.
!!LO:LB:g=z
=21	=21	=21
12C#L	[2a [2aa	.
12G	.	.
12AJ	.	.
12C#L	.	.
12G	.	.
12AJ	.	.
12C#L	12a] 12aaL]	.
12G	12b 12bb	.
12AJ	12a 12aaJ	.
12C#L	12g 12ggL	.
12G	12f# 12ff#	.
12AJ	12e 12eeJ	.
=22	=22	=22
12DL	2d 2dd	.
12F#	.	.
12AJ	.	.
12DL	.	.
12F#	.	.
12AJ	.	.
12DL	2f# 2ff#	.
12F#	.	.
12AJ	.	.
12DL	.	.
12F#	.	.
12AJ	.	.
=23	=23	=23
12C#L	[2a# [2aa#	fz
12E	.	.
12GJ	.	.
12C#L	.	.
12E	.	.
12GJ	.	.
12C#L	12a#] 12aa#L]	.
12E	12ee 12eee	.
12GJ	12dd 12dddJ	.
12C#L	12cc# 12ccc#L	.
12E	12b 12bb	.
12GJ	12a# 12aa#J	.
=24	=24	=24
12DL	4b (4bb	.
12F#	.	.
12BJ	.	.
12C#L	4cc# 4ccc#	.
12E	.	.
12A#J	.	.
.	(<8qqee/ 8qeee/	.
12BBL	4dd 4ddd)	.
12D	.	.
12BJ	.	.
12DL	8cc# 8ccc#L	.
12F#	.	.
.	8b 8bbJ)	.
12BJ	.	.
!!LO:LB:g=z
=25	=25	=25
*	*^	*
(12EL	(2cc# 2aa	2ryy	<
12An	.	.	.
12c#J	.	.	.
12eL	.	.	.
12f#	.	.	.
12d#J	.	.	.
)4e	(12gg#L)	4b	[ >
.	12ff#	.	.
.	12eeJ	.	.
4r	12ddL	4r	.
.	12cc#	.	.
.	12bJ	.	.
*	*v	*v	*
=26	=26	=26
12AL	4a`)	] p
12c#	.	.
12eJ	.	.
12AL	4a`	.
12c#	.	.
12eJ	.	.
12G#L	4b`	.
12d	.	.
12eJ	.	.
12G#L	4r	.
12d	.	.
12eJ	.	.
=27	=27	=27
12AL	4cc#`	.
12c#	.	.
12eJ	.	.
12AL	4cc#`	.
12c#	.	.
12eJ	.	.
12BL	4dd`	.
12d	.	.
12eJ	.	.
12BL	4r	.
12d	.	.
12eJ	.	.
=28	=28	=28
4A` 4c#`	12r	mf
.	(12ccc#L	.
.	12bbJ	.
4r	12aaL	.
.	12gg#	.
.	12ff#J	.
4r	12eeL	.
.	12ff#	.
.	12eeJ	.
4G#` 4B` 4e`	12ddL	.
.	12cc#	.
.	12bJ	.
!!LO:LB:g=z
=29	=29	=29
4A` 4c#` 4e`	12a`L)	.
.	(12ccc#	fz
.	12bbJ	.
4r	12aa`L)	.
.	(12gg#	fz
.	12ff#J	.
4r	12ee`L)	.
.	(12ff#	fz
.	12eeJ	.
4G#` 4B` 4e`	12dd`L)	.
.	(12cc#	fz
.	12bJ	.
=30	=30	=30
4A` 4c#` 4e`	12a`L)	.
.	(12aa	f
.	12gg#J	.
*clefG2	*	*
(4a/ 4cc#/	12ff#L	.
.	12ccc#)	.
.	(12dd#J	.
4g# 4b)	12eeL	.
.	12ff#	.
.	12eeJ	.
(4f# 4a	12ddnL	.
.	12aa)	.
.	(12b#J	.
=31	=31	=31
4e 4g#)	12cc#L	.
.	12dd	.
.	12cc#J	.
(4d 4f#	12bnL	.
.	12ff#)	.
.	(12g#J	.
4c#) 4e	12aL	.
.	12cc#	.
.	12bJ	.
4r	12aL	.
.	12ee)	.
.	(12a#J	.
*clefF4	*	*
!!LO:LB:g=z
=32	=32	=32
12DL	(2b)	.
12F#	.	.
12BJ	.	.
12DL	.	.
12F#	.	.
12BJ	.	.
12D#L	2ff#	.
12A	.	.
12cnJ	.	.
12D#L	.	.
12A	.	.
12cJ	.	.
=33	=33	=33
12EL	2a	.
12A	.	.
12c#XJ	.	.
12EL	.	.
12A	.	.
12c#J	.	.
.	(8qcc#	.
12EL	8.bL)	.
12G#	.	.
12dJ	.	.
.	16ak	.
12EL	8.b	.
12G#	.	.
12dJ	.	.
.	16cc#Jk	.
=34	=34	=34
4A 4c#	12a`L)	.
.	12ff#` 12aa`	mf
.	12ee` 12gg#`J	.
12r	12dd` 12ff#`L	.
12r	12cc#` 12ee`	.
12GG#` 12G#`	12b` 12dd`J	.
4AA 4A	12a` 12cc#`L	.
.	12ff#` 12aa`	.
.	12ee` 12gg#`J	.
12r	12dd` 12ff#`L	.
12r	12cc#` 12ee`	.
12GG#` 12G#`	12b` 12dd`J	.
!!LO:LB:g=z
=35	=35	=35
4AA 4A	12a` 12cc#`L	.
.	(12ccc#	.
.	12bbJ	.
12r	12aa`L)	.
(12f#L	(12aa	.
12eJ	12gg#J	.
)12d`L	12ff#`L)	.
(12d	(12ff#	.
12c#J	12eeJ	.
12B`L)	12dd`L)	.
(12B	(12dd	.
12AJ	12cc#J	.
=36	=36	=36
12G#L)	(4b)	.
12B	.	.
12eJ	.	.
12G#L	4dd	.
12B	.	.
12eJ	.	.
12AL	4cc#	.
12c#	.	.
12eJ	.	.
12AL	4a)	.
12c#	.	.
12eJ	.	.
=37	=37	=37
12DL	(4.ff#	.
12A	.	.
12dJ	.	.
12DL	.	.
12A	.	.
.	(16qgg#LL	.
.	16qff#	.
.	16qee#JJ	.
.	8ff#)	.
12dJ	.	.
12D#L	2aa	.
12A	.	.
12cnJ	.	.
12D#L	.	.
12A	.	.
12cJ	.	.
!!LO:LB:g=z
=38	=38	=38
12EL	2a	>
12A	.	.
12c#XJ	.	.
12EL	.	.
12A	.	.
12c#J	.	.
.	(8qcc#	.
12EL	8.bL>)	.
12G#	.	.
12dJ	.	.
.	16ak	.
12EL	8.b	.
12G#	.	.
12dJ	.	.
.	16cc#Jk	.
=39	=39	=39
12AL	4a)	p
12c#	.	.
12eJ	.	.
12AL	4r	.
12c#	.	.
12eJ	.	.
12EL	4g#' (4ee'	.
12B	.	.
12dJ	.	.
12EL	4g#' 4ee'	.
12B	.	.
12dJ	.	.
=40	=40	=40
12AL	4a' 4cc#')	.
12c#	.	.
12eJ	.	.
12AL	4r	.
12c#	.	.
12eJ	.	.
12EL	4g#' (4ee'	.
12B	.	.
12dJ	.	.
12EL	4g#' 4ee'	.
12B	.	.
12dJ	.	.
!!LO:LB:g=z
=41	=41	=41
12AL	4a)	.
12c#	.	.
12eJ	.	.
12AL	4r	.
12c#	.	.
12eJ	.	.
*	*clefF4	*clefF4
12AL	(4AA'	.
12c#	.	.
12eJ	.	.
12AL	4AA'	.
12c#	.	.
12e'J	.	.
=42	=42	=42
4A	12AA'L)	.
.	12E	.
.	12DJ	.
4r	12C#L	<
.	12Gn	.
.	12F#J	.
2r	12EL	.
.	12B	.
.	12AJ	.
.	12GL	.
.	12e	.
.	12dJ	.
=43	=43	=43
1r	12c#L	.
.	12g	.
.	12f#J	.
.	12eL	.
.	12d	.
.	12c#J	.
.	12cnL	.
.	12B	.
.	12B-J	.
.	12AL	.
.	12G#	.
.	12GnJ	.
!!LO:LB:g=z
=44	=44	=44
.	(16qF#LL	.
.	16qAJJ	.
8r	2d)	f
(16C#LL	.	.
16DJJ	.	.
4DD)	.	.
.	(16qALL	.
.	16qc#JJ	.
8r	2e)	.
(16GG#LL	.	.
16AAJJ	.	.
4AAA)	.	.
=45	=45	=45
.	(16qALL	.
.	16qdJJ	.
8.r	2f#)	.
(16C#	.	.
8DL	.	.
16AAL	.	.
16FF#JJ	.	.
4DD)	4r	.
*	*clefG2	*clefG2
4r	(8.ddL	p
.	16aJk)	.
=46	=46	=46
*^	*	*
4r	4ryy	(2f#	.
2.d	(4d	.	.
.	.	(8qa	.
.	4B)	8.gL)	.
.	.	16f#k	.
.	4G	8.g	.
.	.	16bJk	.
=47	=47	=47	=47
(4c#	2.A	8.eL	.
.	.	16gk	.
4d	.	8.f#	.
.	.	16aJk	.
4e)	.	4g)	.
4r	4ryy	4r	.
*v	*v	*	*
!!LO:LB:g=z
=48	=48	=48
.	(16qF#LL	.
.	16qAJJ	.
16r	4d)	f
(16DLL	.	.
16AA	.	.
16FF#JJ	.	.
8DD)	8r	.
.	(16qF#LL	.
.	16qAJJ	.
8r	8d)	.
.	(16qALL	.
.	16qc#JJ	.
16r	8e)	.
(16AALL	.	.
16EE	8r	.
16CC#JJ	.	.
8AAA)	8r	.
.	(16qALL	.
.	16qc#JJ	.
8r	8e)	.
=49	=49	=49
.	(16qALL	.
.	16qdJJ	.
16r	4f#)	.
(16DDLL	.	.
16EE	.	.
16FF#JJ	.	.
16GGLL	4r	.
16AA	.	.
16BB	.	.
16C#JJ	.	.
4D/)	16r	.
.	(16aaLL	p
.	16gg	.
.	16ff#JJ	.
4r	16eeLL	.
.	16dd	.
.	16cc#	.
.	16bJJ	.
*clefG2	*	*
=50	=50	=50
(8f#L	4.a)	.
8d	.	.
8f#	.	.
8dJ	8a#	.
8gL	(16bLL	.
.	16cc#	.
8d	16dd	.
.	16cc#JJ	.
.	(16qqee	.
8g	8ddL)	.
8dJ	16cc#L	.
.	16bJJ	.
!!LO:LB:g=z
=51	=51	=51
4f#)	8aL	.
.	16bL	.
.	16cc#JJ	.
4r	16ddLL	.
.	16ee	.
.	16ff#	.
.	16ggJJ	.
8r	4aa)	.
(16f#LL	.	mf
16eJJ	.	.
16dLL	4r	.
16c#	.	.
16B	.	.
16AJJ	.	.
=52	=52	=52
4G)	(8bL	<
.	16cc#L	.
.	16ddJJ	.
4r	16eeLL	.
.	16ff#	.
.	16gg	.
.	16aaJJ	.
4r	8bbL)	.
.	(8bbsSSs	.
4G# 4B 4d 4fn	8ccc#	.
.	8dddJ)	[[
=53	=53	=53
.	(8qddd	.
*tuplet	*	*
12AL	2dd)	f
12d	.	.
12f#XJ	.	.
12AL	.	.
12d	.	.
12f#J	.	.
*Xtuplet	*	*
12AL	(8.eeTL	>
12c#	.	.
12gnJ	.	.
.	16ddk	.
12AL	8.ee	.
12c#	.	.
12gJ	.	.
.	16ff#Jk	]]
!!LO:LB:g=z
=54	=54	=54
12dL	4dd)	p
12fn	.	.
12aJ	.	.
12dL	4r	.
12f	.	.
12aJ	.	.
12c#XL	4ee`	.
12e	.	.
12aJ	.	.
12c#L	4ee`	.
12e	.	.
12aJ	.	.
=55	=55	=55
12dL	4ffn`	.
12fn	.	.
12aJ	.	.
12dL	4r	.
12f	.	.
12aJ	.	.
12eL	4cc#X`	.
12g	.	.
12aJ	.	.
12eL	4cc#`	.
12g	.	.
12aJ	.	.
=56	=56	=56
12fnL	4dd`	.
12a	.	.
12gJ	.	.
12fL	4dd`	.
12e	.	.
12dJ	.	.
12c#XL	4ee`	.
12e	.	.
12dJ	.	.
12c#L	4ee`	.
12B	.	.
12AJ	.	.
*clefF4	*	*
!!LO:LB:g=z
=57	=57	=57
12dL	4ffn`	.
12fn	.	.
12eJ	.	.
12dL	4ff`	<
12cn	.	.
12B-J	.	.
12AL	4b-` 4bb-`	.
12G	.	.
12F#XJ	.	.
12GL	4b-` 4bb-`	.
12A	.	.
12B-J	.	.
=58	=58	=58
12cnL	4e`> 4ee`>	.
12d	.	.
12cJ	.	.
12B-L	4e`> 4ee`>	.
12A	.	.
12GJ	.	.
12FnL	4a` 4aa`	.
12G	.	.
12AJ	.	.
12GL	4a` 4aa`	.
12F	.	.
12EJ	.	.
=59	=59	=59
12DL	4ffn` 4ddd`	.
12E	.	.
12FnJ	.	.
12EL	4ff` 4ddd`	.
12D	.	.
12CnJ	.	.
12BB-L	4dd` 4ddd`	.
12D	.	.
12F#J	.	.
12GL	4dd` 4ddd`	.
12A	.	.
12B-J	.	.
*clefG2	*	*
!!LO:LB:g=z
=60	=60	=60
(12cnL	(12eeL	f
12e	12gg	.
12dJ	12ffnJ	.
12cL	12eeL	.
12g	12bb-	.
12fnJ	12aaJ	.
)12eL	12ggL)	.
(<12b-	(12ddd	.
12aJ	12cccnJ	.
12gL	12bb-L	.
12ccn	12aa	.
12b-J	12ggJ	.
=61	=61	=61
12aL>	12ffnL	.
12ccn	12aa	.
12b-J	12ggJ	.
12aL	12ffL	.
12g	12ee	.
12fnJ	12ddJ	.
12eL	12ccnL	.
12f	12dd	.
12eJ	12ccJ	.
12dL	12b-L	.
12cn	12a	.
12B-J	12gJ	.
=62	=62	=62
4A)	12fn`L)	.
.	(12aa	.
.	12ggJ	.
4r	12ffnL	.
.	12ee	.
.	12ddJ	.
4r	12ccnL	.
.	12dd	.
.	12ccJ	.
*clefF4	*	*
4E` 4G` 4cn`	12b-L	.
.	12a	.
.	12gJ	.
!!LO:LB:g=z
=63	=63	=63
4Fn` 4A` 4cn`	12fn`L)	.
.	(12aa	.
.	12ggJ	.
4r	12ffnL	.
.	12ee	.
.	12ddJ	.
4r	12ccnL	.
.	12dd	.
.	12ccJ	.
4E` 4G` 4c`	12b-L	.
.	12a	.
.	12gJ	.
=64	=64	=64
4Fn` 4A` 4cn`	12fnL)	.
.	12a	.
.	12ffnJ	.
4r	12fL<	.
.	12a	.
.	12eeJ	.
2r	12fL	.
.	12a	.
.	12ddJ	.
.	12fL	.
.	12a	.
.	12cc#XJ	.
=65	=65	=65
(2.BBB- 2.BB-	12fnL	.
.	12b-	.
.	12ddJ	.
.	12fL	.
.	12a	.
.	12ddJ	.
.	12fL	.
.	12a-	.
.	12ddJ	.
4BBBn) 4BBn	12fL	.
.	12g	.
.	12ddJ	.
!!LO:LB:g=z
=66	=66	=66
*	*tuplet	*
!!!ONB: slur from nowhere?
4CCn` 4Cn`	12fnL	.
.	12an	.
.	12ccnJ	.
4DD-` 4D-`	12fL	.
.	12a-	.
.	12bnJ	.
*Xtuplet	*Xtuplet	*
2CC 2C	12fL	.
.	12an	.
.	12ccJ	.
.	12b-L	.
.	12g	.
.	12eJ	.
=67	=67	=67
12FnL	2fn 2ffn	mf
12A	.	.
12cnJ	.	.
12FL	.	.
12A	.	.
12cJ	.	.
12FL	2a 2aa	.
12A	.	.
12cJ	.	.
12FL	.	.
12A	.	.
12cJ	.	.
=68	=68	=68
12EL	[2ccn [2cccn	.
12B-	.	.
12cnJ	.	.
12EL	.	.
12B-	.	.
12cJ	.	.
12EL	12cc] 12cccL]	.
12B-	12dd 12ddd	.
12cJ	12cc 12cccJ	.
12EL	12b- 12bb-L	.
12B-	12a 12aa	.
12cJ	12g 12ggJ	.
!!LO:LB:g=z
=69	=69	=69
12FnL	2fn 2ffn	.
12A	.	.
12cnJ	.	.
12FL	.	.
12A	.	.
12cJ	.	.
12FL	4a 4aa	.
12A	.	.
12cJ	.	.
12FL	4ccn 4cccn	.
12A	.	.
12cJ	.	.
=70	=70	=70
12F#XL	[4ee- [4eee-	fz
12A	.	.
12cnJ	.	.
12F#L	12ee-] 12eee-L]	.
12A	(12cccn	.
12cJ	12bb-J	.
12F#L	12aaL	.
12A	12gg	.
12dJ	12ff#XJ	.
12F#L	12ee-XL	.
12A	12dd	.
12dJ	12ccnJ)	.
=71	=71	=71
.	(8b-q	.
12GL	2gg)	.
12B-	.	.
12dJ	.	.
12GL	.	.
12B-	.	.
12dJ	.	.
12GL	4b- 4bb-	.
12B-	.	.
12dJ	.	.
12GL	4dd 4ddd	.
12B-	.	.
12dJ	.	.
!!LO:LB:g=z
=72	=72	=72
12G#L	[4ffn [4fffn	fz
12Bn	.	.
12dJ	.	.
12G#L	12ff] 12fffL]	.
12B	(12ccc#X	.
12dJ	12dddJ	.
12G#L	12fffL	.
12B	12ccc#	.
12dJ	12dddJ	.
12G#L	12fffL	.
12d	12eee	.
12fnJ	12dddJ	.
=73	=73	=73
12AL	4ccc#X)	.
12c#X	.	.
12eJ	.	.
!	!	!LO:DY:rj
12AL	4a (4aa	f
12c#	.	.
12eJ	.	.
12AL	4b- 4bb-)	.
12d	.	.
12fnJ	.	.
12AL	4g# (4gg#	.
12d	.	.
12fJ	.	.
=74	=74	=74
12AL	4a 4aa)	.
12c#X	.	.
12eJ	.	.
12AL	(4ee	.
12c#	.	.
12eJ	.	.
12AL	4ffn	.
12d	.	.
12fnJ	.	.
12AL	4g#	.
12d	.	.
12fJ	.	.
!!LO:LB:g=z
=75	=75	=75
12AL	4a)	.
12c#X	.	.
12eJ	.	.
12AL	(12cc#XL	.
12c#	12ee	.
12eJ	12aaJ	.
12AL	12ddL	.
12d	12ffn	.
12fnJ	12bbnJ	.
12AL	12bL	.
12Bn	12dd	.
12dJ	12gg#J	.
=76	=76	=76
12AL	12aL	.
12c#X	12ee	.
12eJ	12aaJ)	.
12AL	(12aL	.
12d#	12dd#	.
12f#XJ	12ff#XJ	.
12AL	12aL	.
12e	12ee	.
12gJ	12ggnJ	.
12AL	12aL	.
12d#	12ff#	.
12f#J	12aaJ	.
=77	=77	=77
12AL	12aL	.
12e	12ee	.
12gJ	12ggJ	.
12AL	12aL	.
12d#	12ff#	.
12f#J	12aaJ	.
12AL	12aL	.
12e	12ee	.
12gJ	12ggJ	.
12AL	12aL	.
12d#	12ff#	.
12f#J	12aaJ)	.
!!LO:LB:g=z
=78	=78	=78
12A: 12c#: 12e: 12g:	(12a: 12cc#: 12ee: 12gg:L>	.
12r	12ee	.
12r	12cc#J	.
12r	12a	.
!LO:TX:b:i:t=m.s.	!	!
12ryy	12g<L<	.
12ryy	12e<J	.
2ryy	12c#<L<	.
.	12A<J	.
!	!LO:TX:b:i:t=m.d.	!
.	12G</	.
.	12E<L	.
.	12C#<	.
.	12AA<J	.
=79	=79	=79
1ryy	12AAA<L<	.
.	12CC#<	.
.	12EE<J	.
.	12AA<\	.
.	12C#<L>	.
.	12E<J	.
.	12G<L>	.
.	12B<	.
.	12A<J	.
.	12G<L>	.
.	12F#<	.
.	12E<J)	.
=80	=80	=80
.	(F#<16qLL	.
.	A<16qJJ	.
8rBB	2d<)	.
(16C#LL	.	.
16DJJ	.	.
4DD/)	.	.
.	(F#16qLL	.
.	A16qJJ	.
8r	2e)	.
(16GG#LL	.	.
16AAJJ	.	.
4AAA)	.	.
!!LO:LB:g=z
=81	=81	=81
.	(A16qLL	.
.	d16qJJ	.
8.r	2f#)	.
(16C#	.	.
8DL	.	.
16AAL	.	.
16FF#JJ	.	.
4DD)	4r	.
4r	(8.ddL	p
.	16aJk	.
=82	=82	=82
*^	*	*
4r	4ryy	(2f#)	.
2.d	(4d	.	.
.	.	(8aq	.
.	4B)	8.gL)	.
.	.	16f#k	.
.	4G	8.g	.
.	.	16bJk	.
=83	=83	=83	=83
(4c#	2.A	8.eL	.
.	.	16gk	.
4d	.	8.f#	.
.	.	16aJk	.
4e)	.	4g)	.
4r	4ryy	4r	.
*v	*v	*	*
=84	=84	=84
.	(F#16qLL	.
.	A16qJJ	.
16r	4d)	f
(16DLL	.	.
16AA	.	.
16FF#JJ	.	.
8DD)	8r	.
.	(F#16qLL	.
.	A16qJJ	.
8r	8d)	.
.	(A16qLL	.
.	c#16qJJ	.
16r	8e)	.
(16AALL	.	.
16EE	8r	.
16CC#JJ	.	.
8AAA)	8r	.
.	(A16qLL	.
.	c#16qJJ	.
8r	8e)	.
!!LO:LB:g=z
=85	=85	=85
.	(A16qLL	.
.	d16qJJ	.
16r	8f#)	.
(16DLL	.	.
16C#	8r	.
16BBJJ	.	.
16AALL	4r	.
16GG	.	.
16FF#	.	.
16EEJJ	.	.
8DD)	16r	.
.	(16aaLL	p
8r	16gg	.
.	16ff#JJ	.
4r	16eeLL	.
.	16dd	.
.	16cc#	.
.	16bJJ	.
=86	=86	=86
(16DLL	4.a)	.
16F#	.	.
16A	.	.
16dJJ	.	.
*clefG2	*	*
()8f#L	.	.
8dJ	8a#	.
8gL	(16bLL	.
.	16cc#	.
8d	16dd	.
.	16cc#JJ	.
.	(16qqeeP	.
8g	8ddpL)	.
8dJ	16cc#L	.
.	16bJJ	.
=87	=87	=87
4f#)	16aLL	.
.	16b	.
.	16cc#	.
.	16ddJJ	.
4r	16eeLL	.
.	16ff#	.
.	16gg	.
.	16gg#JJ	.
*clefF4	*	*
(16F#LL	8aa)	mf
16G	.	.
16A	8r	.
16BJJ	.	.
16c#LL	4r	.
16d	.	.
16e	.	.
16f#JJ	.	.
!!LO:LB:g=z
=88	=88	=88
2g)	(16a#LL	<
.	16b	.
.	16cc#	.
.	16ddJJ	.
.	16eeLL	.
.	16ff#	.
.	16gg	.
.	16aanJJ	.
4r	8bbL)	.
.	(8bbsSSs	.
4G# 4B 4d 4fn	8ccc#	.
.	8dddJ)	[[
=89	=89	=89
.	(ddd8q	.
*tuplet	*	*
!LO:TUP:a	!	!
12AL	2dd)	f
12d	.	.
12f#XJ	.	.
!LO:TUP:a	!	!
12AL	.	.
12d	.	.
12f#J	.	.
.	(ff#8q	.
!LO:TUP:a	!	!
12AL	()8.eeL	>
12c#	.	.
12gnJ	.	.
.	16ddk	.
*Xtuplet	*	*
12AL	8.ee	.
12c#	.	.
12gJ	.	.
.	16ff#Jk	]]
*clefG2	*	*
=90	=90	=90
12dL	4dd)	p
12f#	.	.
12aJ	.	.
12dL	4r	.
12f#	.	.
12aJ	.	.
12c#L	4ee' (4aa'	.
12g	.	.
12aJ	.	.
12c#L	4ee' 4aa'	.
12g	.	.
12aJ	.	.
!!LO:LB:g=z
=91	=91	=91
12dL	4ff#' 4aa')	.
12f#	.	.
12aJ	.	.
12dL	4r	.
12f#	.	.
12aJ	.	.
*	*clefF4	*clefF4
12c#L	4E' (4A'	.
12g	.	.
12aJ	.	.
12c#L	4E' 4A'	.
12g	.	.
12aJ	.	.
=92	=92	=92
12dL	4F#' 4A')	.
12f#	.	.
12aJ	.	.
12dL	4r	.
12f#	.	.
12aJ	.	.
*	*clefG2	*clefG2
12c#L	4ee' (4aa'	.
12g	.	.
12aJ	.	.
12c#L	4ee' 4aa'	.
12g	.	.
12aJ	.	.
=93	=93	=93
4d	12ff#'L)	mf
.	(12aa	.
.	12ggJ	.
4r	12ff#L	.
.	12ee	.
.	12ddJ	.
4r	12cc#L	.
.	12b	.
.	12aJ	.
*clefF4	*	*
4C#` 4E` 4G` 4A`	12gL	.
.	12f#	.
.	12eJ	.
=94	=94	=94
4D` 4F#` 4A`	12d`L)	.
.	(12ff#	.
.	12eeJ	.
4r	12ddL	.
.	12cc#	.
.	12bJ	.
4r	12aL	.
.	12b	.
.	12aJ	.
4C#` 4E` 4G` 4A`	12gL	.
.	12f#	.
.	12eJ	.
!!LO:LB:g=z
=95	=95	=95
4D` 4F#` 4A`	12dL)	.
.	(12ff#	fz
.	12eeJ	.
4r	12dd`L)	.
.	(12cc#	fz
.	12bJ	.
4r	12a`L)	.
.	(12b	fz
.	12aJ	.
4C#` 4E` 4G` 4A`	12g`L)	.
.	(12f#	fz
.	12eJ	.
=96	=96	=96
!	!	!LO:DY:rj
4D` 4F#` 4A`	12d`L)	f
.	(12dd	.
.	12cc#J	.
(4d 4f#	12bL>	.
.	12ff#)	.
.	(12g#J	.
4c# 4e)	12aL	.
.	12b	.
.	12aJ	.
(4B 4d	12gnL	.
.	12dd)	.
.	(12e#J	.
=97	=97	=97
4A 4c#)	12f#L	.
.	12g	.
.	12f#J	.
(4G 4B	12enL	.
.	12b)	.
.	(12c#J	.
4F# 4A)	12dL	.
.	12f#	.
.	12eJ	.
4r	12dL	.
.	12a)	.
.	(12d#J	.
!!LO:LB:g=z
=98	=98	=98
12GGL	(2e)	.
12BB	.	.
12EJ	.	.
12GGL	.	.
12BB	.	.
12EJ	.	.
12GG#L	2b/	.
12D	.	.
12FnJ	.	.
12GG#L	.	.
12D	.	.
12FJ	.	.
=99	=99	=99
12AAL	(2d)	.
12D	.	.
12F#XJ	.	.
12AAL	.	.
12D	.	.
12F#J	.	.
.	(f#8q	.
12AAL	8.eL)	.
12C#	.	.
12GnJ	.	.
.	16dk	.
12AAL	8.e	.
12C#	.	.
12GJ	.	.
.	16f#Jk	.
=100	=100	=100
4D 4F#	12d`L)	.
.	12b` 12dd`	mf
.	12a` 12cc#`J	.
12r	12g` 12b`L	.
12r	12f#` 12a`	.
12CC#` 12C#`	12e` 12g`J	.
4DD 4D	12c#` 12f#`L	.
.	12b` 12dd`	<
.	12a` 12cc#`J	.
12r	12g` 12b`L	.
12r	12f#` 12a`	.
12CC#` 12C#`	12e` 12g`J	.
!!LO:LB:g=z
=101	=101	=101
4DD 4D	12d` 12f#`L	.
.	12bb` 12ddd`	f
.	12aa` 12ccc#`J	.
12r	12gg` 12bb`L	.
12r	12ff#` 12aa`	.
12C#` 12c#`	12ee` 12gg`J	.
4D 4d	12dd` 12ff#`L	.
.	12bb` 12ddd`	.
.	12aa` 12ccc#`J	.
12r	12gg` 12bb`L	.
12r	12ff#` 12aa`	.
12C#` 12c#`	12ee` 12gg`J	.
=102	=102	=102
4D 4d	12dd` 12ff#`L	.
.	12ff# (12aa	.
.	12ee 12ggJ	.
4r	12dd` 12ff#`L)	.
.	12dd (12ff#	.
.	12cc# 12eeJ	.
2r	12b` 12dd`L)	.
.	12b (12dd	.
.	12a 12cc#J	.
.	12g` 12b`L)	.
.	(12g 12b	.
.	12f# 12aJ	.
=103	=103	=103
12C#L	(2e) 2g	.
12E	.	.
12AJ	.	.
12C#L	.	.
12E	.	.
12AJ	.	.
12DL	4f#	.
12F#	.	.
12AJ	.	.
12DL	4d)	.
12F#	.	.
12AJ	.	.
!!LO:LB:g=z
=104	=104	=104
12GGL	(4.b	<
12D	.	.
12GJ	.	.
12GGL	.	.
12D	.	.
.	(cc#16qLL	.
.	b16q	.
.	a#16qJJ	.
.	8b)	.
12GJ	.	.
12GG#L	2dd	.
12D	.	[
12FnJ	.	.
12GG#L	.	.
12D	.	.
12FJ	.	.
=105	=105	=105
12AAL	(2d)	>
12D	.	.
12FJ	.	.
12AAL	.	.
12D	.	.
12F#J	.	.
.	(f#8q	.
12AAL	8.eL)	.
12C#	.	.
12GnJ	.	.
.	16dk	.
12AAL	8.e	.
12C#	.	.
12GJ	.	.
.	16f#Jk	.
=106	=106	=106
12DDL	4d)	p
12AA	.	.
12DJ	.	.
12DDL	4r	.
12AA	.	.
12DJ	.	.
12DDL	4c#'> (>4g'>	.
12AA	.	.
12EJ	.	.
12DDL	4c#'> 4g'>	.
12AA	.	.
12EJ	.	.
=107	=107	=107
12DDL	4d'> 4f#'>)	.
12AA	.	.
12DJ	.	.
12DDL	4r	.
12AA	.	.
12DJ	.	.
12DDL	4g'> (>4cc#'>	.
12AA	.	.
12EJ	.	.
12DDL	4g'> 4cc#'>	.
12AA	.	.
12EJ	.	.
!!LO:LB:g=z
=108	=108	=108
12DDL	4f#' 4dd')	.
12AA	.	.
12DJ	.	.
12DDL	4r	.
12AA	.	.
12DJ	.	.
!	!	!LO:HP:t=dimin.
12DDL	4c#'> (>4g'>	>
12BB-	.	.
12EJ	.	.
12DDL	4c#'> 4g'>	.
12BB-	.	.
12EJ	.	.
=109	=109	=109
12DDL	4d'> 4f#'>)	.
12AA	.	.
12DJ	.	.
12DDL	4r	.
12AA	.	.
12DJ	.	.
12DDL	4G'> (>4c#'>	.
12BB-	.	.
12EJ	.	.
12DDL	4G'> 4c#'>	.
12BB-	.	.
12EJ	.	.
=110	=110	=110
12DDL	4F#'> 4d'>)	pp
12AA	.	.
12DJ	.	.
12DDL	4r	.
12AA	.	.
12DJ	.	.
12DDL	4F#'> (>4d'>	.
12AA	.	.
12DJ	.	.
12DDL	4F#'> 4d'>)	.
12AA	.	.
12DJ	.	.
=111	=111	=111
1DD	1F# 1d	.
==	==	==
*-	*-	*-
!!!RDF**kern: > = above
!!!RDF**kern: < = below
!!!RDF**dynam: > = dim.
!!!SMS: Universal Edition 1, Haydn Piano Sonatas, Vol. 1, No. 10
!!!ONB: Stich und Druck von Jos. Eberle & Co. Wien VII. Seidengasse 3-9
!!!ENC: Craig Stuart Sapp
!!!END: 2008/07/05
!!!EED: Craig Stuart Sapp
!!!EEV: 2021/02/02
